X: 34652
T: Road To Boston
R: polka
M: 2/4
K: Dmajor
f2 f e/f/|gf ed|c>d ef|dA F/G/A|
f2 f e/f/|g/a/g/f/ ed|cd ef|1 dA:|2 de||
a2 a^g/a/|ba gf|g2 g f/g/|ag fe|
f2 f e/f/|gf ed|cd e>f|de fg|
aA a^g/a/|b/c'/b/a/ gf|gA gf/g/|a/b/a/g/ fe|
fA fe/f/|g/a/g/f/ ed|cd ec|d2||

